X:1
T:John Turner's Magic Kingdom
C:T. S. Macdonald
L:1/8
M:6/8
N:The compoſer has forgotten the origins of the title and the purpoſe of the tune.
K:Amix =g
  a2 A A>BA | BAB A2 G | g2 B BAB | dBB B2 b | aba g2 e | dBg G2 B | ABc dBG | BAA A3 :|]
|: g2 b afd | ecA A2 e | f2 g fdB | cAF F2 E | ABA B2 e | dBg G2 B | ABc dBG | BAA A3 :|]

